!!!OTL: SIST GEWISS UND KEIN GEDICHT
!!!ARE: Europa, Mitteleuropa, Deutschland
!!!SCT: E0904
!!!YEM: Copyright 1995, estate of Helmut Schaffrath.
**kern
*ICvox
*Ivox
*M3/4
*k[f#]
*G:
{8.d
16d
=1
4.g
8g
8f#
8g
=2
2a}
{8g
8b
=3
4dd
4g
8a
8f#
=4
2g}
{8b
8cc
=5
4dd
4dd
8a
8cc
=6
8b
8a
4g}
{8b
8cc
=7
4dd
4dd
8a
8cc
=8
8b
8a
4g}
{8.d
16d
=9
4.g
8g
8f#
8g
=10
4.a}
{8cc
8b
8cc
=11
4dd
8b
8cc
8b
8cc
=12
4dd
8b
8g
8a
8f#
=13
4g
4r}
==
!!!AGN: Ehestands - Lied
!!!ONB: ESAC (Essen Associative Code) Database: ERK2
!!!AMT: simple triple
!!!AIN: vox
!!!EED: Helmut Schaffrath
!!!EEV: 1.0
*-
